source/assets/ui/tabs/hac_c.svg

<?xml version="1.0" encoding="UTF-8" standalone="no"?>
<!-- Created with Inkscape (http://www.inkscape.org/) -->

<svg
   width="70"
   height="24"
   viewBox="0 0 70 24"
   version="1.1"
   id="SVGRoot"
   xmlns="http://www.w3.org/2000/svg"
   xmlns:svg="http://www.w3.org/2000/svg"
   xmlns:rdf="http://www.w3.org/1999/02/22-rdf-syntax-ns#"
   xmlns:cc="http://creativecommons.org/ns#"
   xmlns:dc="http://purl.org/dc/elements/1.1/">
  <defs
     id="defs1725" />
  <g
     id="layer1"
     transform="translate(-77.1393,-30.827056)">
    <g
       id="g2033-1"
       transform="matrix(1,0,0,1.00375,-1858.8607,368.04207)">
      <path
         id="rect1844-6"
         style="fill:#ffffff;fill-opacity:1;stroke:none;stroke-width:0.0598878;stroke-miterlimit:4;stroke-dasharray:none;stroke-dashoffset:9.6;stroke-opacity:1;paint-order:markers stroke fill"
         d="M 30.855469 4 C 30.148998 4 29.580078 4.5701769 29.580078 5.2792969 L 29.580078 18.720703 C 29.580078 19.429823 30.148998 20 30.855469 20 L 39.144531 20 C 39.851002 20 40.419922 19.429823 40.419922 18.720703 L 40.419922 5.2792969 C 40.419922 4.5701769 39.851002 4 39.144531 4 L 30.855469 4 z M 31.027344 5.2792969 L 38.972656 5.2792969 L 38.972656 7.8691406 L 31.027344 7.8691406 L 31.027344 5.2792969 z M 31.027344 8.5097656 L 38.972656 8.5097656 L 38.972656 17.441406 L 31.027344 17.441406 L 31.027344 8.5097656 z "
         transform="matrix(1,0,0,0.99626401,1936,-335.95518)" />
    </g>
  </g>
  <metadata
     id="metadata2103">
    <rdf:RDF>
      <cc:Work
         rdf:about="">
        <dc:creator>
          <cc:Agent>
            <dc:title>NinStar</dc:title>
          </cc:Agent>
        </dc:creator>
      </cc:Work>
    </rdf:RDF>
  </metadata>
</svg>

<?xml version="1.0" encoding="UTF-8"?>
<svg id="a" width="70" height="24" version="1.1" viewBox="0 0 70 24" xmlns="http://www.w3.org/2000/svg" xmlns:cc="http://creativecommons.org/ns#" xmlns:dc="http://purl.org/dc/elements/1.1/" xmlns:rdf="http://www.w3.org/1999/02/22-rdf-syntax-ns#"><g transform="translate(-77.139 -30.827)"><g transform="matrix(1 0 0 1.0038 -1858.9 368.04)"><path transform="matrix(1 0 0 .99626 1936 -335.96)" d="m30.855 4c-0.70647 0-1.2754 0.57018-1.2754 1.2793v13.441c0 0.70912 0.56892 1.2793 1.2754 1.2793h8.2891c0.70647 0 1.2754-0.57018 1.2754-1.2793v-13.441c0-0.70912-0.56892-1.2793-1.2754-1.2793h-8.2891zm0.17188 1.2793h7.9453v2.5898h-7.9453v-2.5898zm0 3.2305h7.9453v8.9316h-7.9453v-8.9316z" fill="#fff" style="paint-order:markers stroke fill"/></g></g><metadata><rdf:RDF><cc:Work rdf:about=""><dc:creator><cc:Agent><dc:title>NinStar</dc:title></cc:Agent></dc:creator></cc:Work></rdf:RDF></metadata></svg>
